src/global/asset/icon/square.svg

<svg width="64" height="64" viewBox="0 0 64 64" fill="none" xmlns="http://www.w3.org/2000/svg">
<path fill-rule="evenodd" clip-rule="evenodd" d="M19.3342 6.36768C22.7974 5.59803 26.9988 5.3335 32.0006 5.3335C37.0025 5.3335 41.2039 5.59803 44.6671 6.36768C48.1607 7.14408 51.0641 8.4695 53.2977 10.703C55.5313 12.9366 56.8566 15.8402 57.6332 19.3337C58.4028 22.7969 58.6673 26.9983 58.6673 32.0002C58.6673 37.002 58.4028 41.2034 57.6332 44.6666C56.8566 48.1602 55.5313 51.0636 53.2977 53.2972C51.0641 55.5308 48.1607 56.8562 44.6671 57.6327C41.2039 58.4023 37.0025 58.6668 32.0006 58.6668C26.9988 58.6668 22.7974 58.4023 19.3342 57.6327C15.8407 56.8562 12.9371 55.5308 10.7035 53.2972C8.46998 51.0636 7.14457 48.1602 6.36817 44.6666C5.59852 41.2034 5.33398 37.002 5.33398 32.0002C5.33398 26.9983 5.59852 22.7969 6.36817 19.3337C7.14457 15.8402 8.46998 12.9366 10.7035 10.703C12.9371 8.4695 15.8407 7.14408 19.3342 6.36768Z" fill="#323232"/>
</svg>

<svg xmlns="http://www.w3.org/2000/svg" width="64" height="64" fill="none" viewBox="0 0 64 64"><path fill="#323232" fill-rule="evenodd" d="M19.334 6.368c3.463-.77 7.665-1.035 12.667-1.035s9.203.265 12.666 1.035c3.494.776 6.397 2.101 8.63 4.335s3.56 5.137 4.336 8.63c.77 3.464 1.034 7.665 1.034 12.667s-.264 9.203-1.034 12.667c-.776 3.493-2.102 6.397-4.335 8.63s-5.137 3.56-8.63 4.336c-3.464.77-7.666 1.034-12.667 1.034-5.002 0-9.204-.265-12.667-1.034-3.493-.777-6.397-2.102-8.63-4.336-2.234-2.233-3.56-5.137-4.336-8.63-.77-3.464-1.034-7.665-1.034-12.667s.265-9.203 1.034-12.666c.777-3.494 2.102-6.397 4.336-8.631 2.233-2.233 5.137-3.559 8.63-4.335" clip-rule="evenodd"/></svg>
